X:1
T:The Bonny Boy
M:4/4
L:1/8
K:C
 z4 z2E-F|G-E DE C2 EC| A,C CA, G,2E-F| G2G-AG-E CE| D6E-F|G-E DE C2 EC|\
A,-C CA, G,2 CD| E2 A,A, A,2 B,C| D2-B,-A, G,2 EF| G2 FE D2 A,B,| C6 z2|\
